svg/color/bed.svg

<?xml version="1.0" encoding="UTF-8" ?>
<!DOCTYPE svg PUBLIC "-//W3C//DTD SVG 1.1//EN" "http://www.w3.org/Graphics/SVG/1.1/DTD/svg11.dtd">
<svg width="250pt" height="250pt" viewBox="0 0 250 250" version="1.1" xmlns="http://www.w3.org/2000/svg">
<g id="#ffffffff">
<path fill="#ffffff" opacity="1.00" d=" M 0.00 0.00 L 10.48 0.00 C 5.12 3.98 0.95 9.75 0.00 16.48 L 0.00 0.00 Z" />
<path fill="#ffffff" opacity="1.00" d=" M 239.70 0.00 L 250.00 0.00 L 250.00 14.53 C 248.10 8.78 244.53 3.66 239.70 0.00 Z" />
<path fill="#ffffff" opacity="1.00" d=" M 58.83 35.62 C 61.00 35.25 63.48 34.01 65.49 35.49 C 66.17 39.60 65.22 43.75 64.91 47.85 C 63.97 59.50 62.48 71.10 61.68 82.76 C 68.29 78.74 75.15 74.41 83.00 73.49 C 90.34 72.96 98.35 72.83 104.68 77.17 C 115.52 83.54 120.98 96.07 122.47 108.11 C 122.84 114.64 122.88 121.22 122.36 127.75 C 119.91 142.92 113.81 158.66 100.95 167.97 C 91.82 175.09 78.75 176.65 68.19 171.97 C 62.85 169.88 58.71 165.83 53.99 162.73 C 53.69 164.24 53.41 165.75 53.13 167.27 C 46.10 170.00 38.56 171.00 31.24 172.68 C 27.32 173.34 23.35 175.17 19.35 173.97 C 19.54 161.78 21.09 149.64 22.14 137.50 C 23.62 112.63 26.30 87.83 28.08 62.99 C 28.59 56.24 28.98 49.48 29.74 42.74 C 39.42 40.30 49.17 38.16 58.83 35.62 M 72.50 96.72 C 67.16 98.67 62.41 102.54 59.54 107.45 C 57.92 112.78 58.87 118.53 57.78 123.99 C 57.69 130.02 56.15 135.98 56.54 142.01 C 58.78 146.38 63.12 149.52 67.71 151.11 C 71.53 152.06 76.13 152.09 79.08 149.08 C 86.30 142.49 88.90 132.39 90.13 123.03 C 90.73 114.91 90.93 105.40 84.88 99.10 C 81.82 95.54 76.66 95.97 72.50 96.72 Z" />
<path fill="#ffffff" opacity="1.00" d=" M 153.23 73.97 C 158.66 72.90 163.87 70.95 169.32 70.01 C 168.92 74.22 168.36 78.40 167.72 82.58 C 173.30 80.35 178.25 76.71 184.08 75.08 C 193.48 72.40 204.24 70.93 213.17 75.85 C 222.76 81.08 228.19 91.56 229.96 102.02 C 232.34 118.23 229.88 135.36 221.66 149.67 C 215.47 161.16 204.83 170.82 191.79 173.48 C 185.34 174.02 178.47 174.51 172.44 171.66 C 168.27 170.12 164.72 167.39 160.79 165.39 C 159.64 178.41 158.47 191.43 157.40 204.44 C 148.50 207.30 139.27 208.93 130.30 211.54 C 128.28 212.10 126.19 212.80 124.07 212.39 C 122.00 210.96 122.96 208.39 123.11 206.34 C 125.40 176.56 127.88 146.81 130.47 117.05 C 131.55 104.78 132.16 92.46 133.61 80.23 C 133.47 78.00 135.84 77.19 137.61 76.83 C 142.79 75.75 148.06 75.10 153.23 73.97 M 179.52 96.73 C 173.92 99.06 168.40 102.92 165.71 108.48 C 164.95 117.30 164.74 126.18 163.68 134.98 C 161.85 144.91 173.30 154.05 182.68 150.68 C 187.30 149.12 190.61 145.10 192.85 140.92 C 197.87 131.26 198.42 120.05 197.20 109.43 C 196.18 104.96 194.23 100.34 190.37 97.60 C 187.21 95.41 183.03 95.46 179.52 96.73 Z" />
<path fill="#ffffff" opacity="1.00" d=" M 0.00 231.55 C 2.07 240.53 8.93 248.88 18.52 250.00 L 0.00 250.00 L 0.00 231.55 Z" />
<path fill="#ffffff" opacity="1.00" d=" M 233.43 250.00 C 241.95 247.52 248.09 240.10 250.00 231.57 L 250.00 250.00 L 233.43 250.00 Z" />
</g>
<g id="#e84949ff">
<path fill="#e84949" opacity="1.00" d=" M 10.48 0.00 L 239.70 0.00 C 244.53 3.66 248.10 8.78 250.00 14.53 L 250.00 231.57 C 248.09 240.10 241.95 247.52 233.43 250.00 L 18.52 250.00 C 8.93 248.88 2.07 240.53 0.00 231.55 L 0.00 16.48 C 0.95 9.75 5.12 3.98 10.48 0.00 M 58.83 35.62 C 49.17 38.16 39.42 40.30 29.74 42.74 C 28.98 49.48 28.59 56.24 28.08 62.99 C 26.30 87.83 23.62 112.63 22.14 137.50 C 21.09 149.64 19.54 161.78 19.35 173.97 C 23.35 175.17 27.32 173.34 31.24 172.68 C 38.56 171.00 46.10 170.00 53.13 167.27 C 53.41 165.75 53.69 164.24 53.99 162.73 C 58.71 165.83 62.85 169.88 68.19 171.97 C 78.75 176.65 91.82 175.09 100.95 167.97 C 113.81 158.66 119.91 142.92 122.36 127.75 C 122.88 121.22 122.84 114.64 122.47 108.11 C 120.98 96.07 115.52 83.54 104.68 77.17 C 98.35 72.83 90.34 72.96 83.00 73.49 C 75.15 74.41 68.29 78.74 61.68 82.76 C 62.48 71.10 63.97 59.50 64.91 47.85 C 65.22 43.75 66.17 39.60 65.49 35.49 C 63.48 34.01 61.00 35.25 58.83 35.62 M 153.23 73.97 C 148.06 75.10 142.79 75.75 137.61 76.83 C 135.84 77.19 133.47 78.00 133.61 80.23 C 132.16 92.46 131.55 104.78 130.47 117.05 C 127.88 146.81 125.40 176.56 123.11 206.34 C 122.96 208.39 122.00 210.96 124.07 212.39 C 126.19 212.80 128.28 212.10 130.30 211.54 C 139.27 208.93 148.50 207.30 157.40 204.44 C 158.47 191.43 159.64 178.41 160.79 165.39 C 164.72 167.39 168.27 170.12 172.44 171.66 C 178.47 174.51 185.34 174.02 191.79 173.48 C 204.83 170.82 215.47 161.16 221.66 149.67 C 229.88 135.36 232.34 118.23 229.96 102.02 C 228.19 91.56 222.76 81.08 213.17 75.85 C 204.24 70.93 193.48 72.40 184.08 75.08 C 178.25 76.71 173.30 80.35 167.72 82.58 C 168.36 78.40 168.92 74.22 169.32 70.01 C 163.87 70.95 158.66 72.90 153.23 73.97 Z" />
<path fill="#e84949" opacity="1.00" d=" M 72.50 96.72 C 76.66 95.97 81.82 95.54 84.88 99.10 C 90.93 105.40 90.73 114.91 90.13 123.03 C 88.90 132.39 86.30 142.49 79.08 149.08 C 76.13 152.09 71.53 152.06 67.71 151.11 C 63.12 149.52 58.78 146.38 56.54 142.01 C 56.15 135.98 57.69 130.02 57.78 123.99 C 58.87 118.53 57.92 112.78 59.54 107.45 C 62.41 102.54 67.16 98.67 72.50 96.72 Z" />
<path fill="#e84949" opacity="1.00" d=" M 179.52 96.73 C 183.03 95.46 187.21 95.41 190.37 97.60 C 194.23 100.34 196.18 104.96 197.20 109.43 C 198.42 120.05 197.87 131.26 192.85 140.92 C 190.61 145.10 187.30 149.12 182.68 150.68 C 173.30 154.05 161.85 144.91 163.68 134.98 C 164.74 126.18 164.95 117.30 165.71 108.48 C 168.40 102.92 173.92 99.06 179.52 96.73 Z" />
</g>
</svg>

<?xml version="1.0" encoding="utf-8"?>
<!-- Generator: Adobe Illustrator 26.0.3, SVG Export Plug-In . SVG Version: 6.00 Build 0)  -->
<svg version="1.1" id="Layer_1" xmlns="http://www.w3.org/2000/svg" xmlns:xlink="http://www.w3.org/1999/xlink" x="0px" y="0px"
	 viewBox="0 0 250 250" style="enable-background:new 0 0 250 250;" xml:space="preserve">
<style type="text/css">
	.st0{fill:#FFFFFF;}
	.st1{fill:#E84949;}
</style>
<g id="_x23_ffffffff">
	<path class="st0" d="M0,0h10.5C5.1,4,0.9,9.8,0,16.5V0z"/>
	<path class="st0" d="M250,14.5c-1.9-5.8-5.5-10.9-10.3-14.5"/>
	<path class="st0" d="M58.8,35.6c2.2-0.4,4.6-1.6,6.7-0.1c0.7,4.1-0.3,8.3-0.6,12.4c-0.9,11.7-2.4,23.2-3.2,34.9
		c6.6-4,13.5-8.3,21.3-9.3c7.3-0.5,15.3-0.7,21.7,3.7c10.8,6.4,16.3,18.9,17.8,30.9c0.4,6.5,0.4,13.1-0.1,19.6
		c-2.4,15.2-8.6,30.9-21.4,40.2c-9.1,7.1-22.2,8.7-32.8,4c-5.3-2.1-9.5-6.1-14.2-9.2c-0.3,1.5-0.6,3-0.9,4.5
		c-7,2.7-14.6,3.7-21.9,5.4c-3.9,0.7-7.9,2.5-11.9,1.3c0.2-12.2,1.7-24.3,2.8-36.5c1.5-24.9,4.2-49.7,5.9-74.5
		c0.5-6.8,0.9-13.5,1.7-20.2C39.4,40.3,49.2,38.2,58.8,35.6 M72.5,96.7c-5.3,1.9-10.1,5.8-13,10.7c-1.6,5.3-0.7,11.1-1.8,16.5
		c-0.1,6-1.6,12-1.2,18c2.2,4.4,6.6,7.5,11.2,9.1c3.8,0.9,8.4,1,11.4-2c7.2-6.6,9.8-16.7,11-26.1c0.6-8.1,0.8-17.6-5.2-23.9
		C81.8,95.5,76.7,96,72.5,96.7z"/>
	<path class="st0" d="M153.2,74c5.4-1.1,10.6-3,16.1-4c-0.4,4.2-1,8.4-1.6,12.6c5.6-2.2,10.5-5.9,16.4-7.5
		c9.4-2.7,20.2-4.2,29.1,0.8c9.6,5.2,15,15.7,16.8,26.2c2.4,16.2-0.1,33.3-8.3,47.7c-6.2,11.5-16.8,21.2-29.9,23.8
		c-6.4,0.5-13.3,1-19.3-1.8c-4.2-1.5-7.7-4.3-11.7-6.3c-1.1,13-2.3,26-3.4,39.1c-8.9,2.9-18.1,4.5-27.1,7.1c-2,0.6-4.1,1.3-6.2,0.9
		c-2.1-1.4-1.1-4-1-6.1c2.3-29.8,4.8-59.5,7.4-89.3c1.1-12.3,1.7-24.6,3.1-36.8c-0.1-2.2,2.2-3,4-3.4
		C142.8,75.8,148.1,75.1,153.2,74 M179.5,96.7c-5.6,2.3-11.1,6.2-13.8,11.8c-0.8,8.8-1,17.7-2,26.5c-1.8,9.9,9.6,19.1,19,15.7
		c4.6-1.6,7.9-5.6,10.2-9.8c5-9.7,5.6-20.9,4.3-31.5c-1-4.5-3-9.1-6.8-11.8C187.2,95.4,183,95.5,179.5,96.7z"/>
	<path class="st0" d="M0,231.6c2.1,9,8.9,17.3,18.5,18.4"/>
	<path class="st0" d="M233.4,250c8.5-2.5,14.7-9.9,16.6-18.4"/>
</g>
<g id="_x23_e84949ff">
	<path class="st1" d="M10.5,0 M10.5,0h229.2c4.8,3.7,8.4,8.8,10.3,14.5v217c-1.9,8.5-8.1,15.9-16.6,18.4H18.5
		c-9.6-1.1-16.5-9.5-18.5-18.4V16.5 M58.8,35.6c-9.7,2.5-19.4,4.7-29.1,7.1C29,49.5,28.6,56.2,28.1,63c-1.8,24.8-4.5,49.6-5.9,74.5
		c-1,12.1-2.6,24.3-2.8,36.5c4,1.2,8-0.6,11.9-1.3c7.3-1.7,14.9-2.7,21.9-5.4c0.3-1.5,0.6-3,0.9-4.5c4.7,3.1,8.9,7.2,14.2,9.2
		c10.6,4.7,23.6,3.1,32.8-4c12.9-9.3,19-25.1,21.4-40.2c0.5-6.5,0.5-13.1,0.1-19.6c-1.5-12-7-24.6-17.8-30.9
		C98.3,72.8,90.3,73,83,73.5c-7.8,0.9-14.7,5.2-21.3,9.3c0.8-11.7,2.3-23.3,3.2-34.9c0.3-4.1,1.3-8.2,0.6-12.4
		C63.5,34,61,35.2,58.8,35.6 M153.2,74c-5.2,1.1-10.4,1.8-15.6,2.9c-1.8,0.4-4.1,1.2-4,3.4c-1.4,12.2-2.1,24.5-3.1,36.8
		c-2.6,29.8-5.1,59.5-7.4,89.3c-0.2,2.1-1.1,4.6,1,6.1c2.1,0.4,4.2-0.3,6.2-0.9c9-2.6,18.2-4.2,27.1-7.1c1.1-13,2.2-26,3.4-39.1
		c3.9,2,7.5,4.7,11.7,6.3c6,2.8,12.9,2.4,19.3,1.8c13-2.7,23.7-12.3,29.9-23.8c8.2-14.3,10.7-31.4,8.3-47.7
		c-1.8-10.5-7.2-20.9-16.8-26.2c-8.9-4.9-19.7-3.4-29.1-0.8c-5.8,1.6-10.8,5.3-16.4,7.5c0.6-4.2,1.2-8.4,1.6-12.6
		C163.9,70.9,158.7,72.9,153.2,74z"/>
	<path class="st1" d="M72.5,96.7c4.2-0.8,9.3-1.2,12.4,2.4c6.1,6.3,5.9,15.8,5.2,23.9c-1.2,9.4-3.8,19.5-11,26.1c-3,3-7.6,3-11.4,2
		c-4.6-1.6-8.9-4.7-11.2-9.1c-0.4-6,1.1-12,1.2-18c1.1-5.5,0.1-11.2,1.8-16.5C62.4,102.5,67.2,98.7,72.5,96.7z"/>
	<path class="st1" d="M179.5,96.7c3.5-1.3,7.7-1.3,10.8,0.9c3.9,2.7,5.8,7.4,6.8,11.8c1.2,10.6,0.7,21.8-4.3,31.5
		c-2.2,4.2-5.6,8.2-10.2,9.8c-9.4,3.4-20.8-5.8-19-15.7c1.1-8.8,1.3-17.7,2-26.5C168.4,102.9,173.9,99.1,179.5,96.7z"/>
</g>
</svg>
